src/symbolic/mimetypes/x-office-presentation-symbolic.svg

<svg xmlns="http://www.w3.org/2000/svg" width="16" height="16" version="1.1">
 <path style="fill:#444444" d="M 7.4922 9.9922 A 0.50005 0.50005 0 0 0 7 10.5 L 7 12.75 L 5.1992 14.1 A 0.50048 0.50048 0 1 0 5.8008 14.9 L 7.5 13.625 L 9.1992 14.9 A 0.50048 0.50048 0 1 0 9.8008 14.1 L 8 12.75 L 8 10.5 A 0.50005 0.50005 0 0 0 7.4922 9.9922 z"/>
 <path style="fill:#444444" d="M 2,2 H 14 C 14.554,2 15,2.446 15,3 15,3.554 14.554,4 14,4 H 2 C 1.446,4 1,3.554 1,3 1,2.446 1.446,2 2,2 Z"/>
 <path style="fill:#444444" d="M 2 3 L 2 11 L 14 11 L 14 3 L 2 3 z M 8 4 A 2 2 0 0 1 10 6 L 8 6 L 8 4 z M 7 5 L 7 7 L 9 7 A 2 2 0 0 1 7 9 A 2 2 0 0 1 5 7 A 2 2 0 0 1 7 5 z"/>
</svg>

<svg xmlns="http://www.w3.org/2000/svg" width="16" height="16"><path d="M7.492 9.992A.5.5 0 0 0 7 10.5v2.25L5.2 14.1a.5.5 0 1 0 .6.8l1.7-1.275L9.2 14.9a.5.5 0 1 0 .6-.8L8 12.75V10.5a.5.5 0 0 0-.508-.508zM2 2h12c.554 0 1 .446 1 1s-.446 1-1 1H2c-.554 0-1-.446-1-1s.446-1 1-1z" fill="#444"/><path d="M2 3v8h12V3H2zm6 1a2 2 0 0 1 2 2H8V4zM7 5v2h2a2 2 0 0 1-2 2 2 2 0 0 1-2-2 2 2 0 0 1 2-2z" fill="#444"/></svg>
